X:1
T:Precamur sancte domine
T:Ivo de Vento
T:Source : Liber mottetorum 4 vocum---Monachij---A.Berg---1571. Editor : André Vierendeels (27/01/14).
T:Precamur sancte domine
C:Ivo de Vento
%%score [ 1 [ 2 3 ] 4 ]
L:1/8
Q:1/4=94
M:2/2
K:F
V:1 treble nm="Superius" snm="S"
V:2 treble-8 nm="Tenor 1" snm="T 1"
V:3 treble-8 nm="Tenor 2" snm="T 2"
V:4 bass nm="Bassus" snm="B"
V:1
 G4 G4 | F2 B4 AG | FG AB c3 B | AG FE DE F2- | FE/D/ E2 D2 D2- | D2 F2 G4 | z2 F2 F2 E2 | %7
w: Pre- ca-|mur san- * *|||* * * * cte do-|* mi- ne,|pre- ca- mur|
 F4 D2 G2- | G2 F2 G2 B2 | B2 B2 A2 F2 | A4 G4 | F4 E4 | z8 | z4 z2 B2 | c2 c2 c2 A2 | B4 A4 | %16
w: can- cte do-|* ni- ne, de-|fen- de nos in|hac _|no- cte,||fit|no- bis in te|re- qui-|
 G4 z4 | z8 | z4 A4 | B4 G2 c2- | c2 BA d3 c | BG B4 A2 | G3 G E2 A2- | A2 G4 F2 | G2 G2 c3 c | %25
w: es,||qui-|e- tam no-||* * * ctem|tri- bu- e, qui-|* e- tam|no- ctem tri- bu-|
 F2 B2 A2 G2- |"^#" G2 F2 G4- | G8- | G8 || z8 | G4 B2 B2 | A4 G4 | F3 F F4 | z2 F2 G2 G2 | %34
w: e, no- ctem tri-|* bu- e,|_|||De- fen- sor|no- ster|a- spi- ce,|de- fen- sor|
 F2 D2 _E3 E | D2 d2 d2 d2 | c2 A2 B2 G2- | GF FE/D/ E4 | F4 z4 | z8 | A4 B4 | G4 F4 | G4 A2 A2- | %43
w: no- ster a- spi-|ce in- si- di-|an- tes re- pri-||me,||quos san-|gui- *|ne mer- ca-|
 AG F3 D G2- | G2 _E2 D2 F2- | F_E ED/E/ F2 F2- | FD G4 F2 | G8 |] %48
w: |* tus es mer-||* * ca- tus|es.|
V:2
 z8 | z4 d4 | d4 c2 f2- | fe dc B2 A2 | c3 c B2 B2- | B2 d4 c2 | B2 A2 d2 c2 | c2 f4 d2 | %8
w: |Pre-|ca- mur san-|* * * * * cte|do- mi- ne, pre-|* ca- mur|san- cte do- mi-|ne, san- cte|
 _e2 d2 B4 | z2 d2 d2 d2 | c2 A2 c2 B2- | BA d3 c/B/ c2 | d2 d2 e4- | e2 f2 d4 | c4 A3 A | %15
w: do- mi- ne,|de- fen- de|nos in hac no-||cte, fit no-|* bus in|te re- qui-|
 d4 z2 A2 | B4 G2 G2- | G2 F2 GA Bc | BG g4 f2 | g2 d2 _e4 | c2 f4 d2 | d3 e fe cd | ed d4 c2 | %23
w: es, qui-|e- tam no-|* ctem tri- * * *|* * * bu-|e qui- e-|tam no- ctem|tri- * * * * *|* * * bu-|
 d2 d2 d2 d2 | B2 G2 _e3 e | d2 f2 f2 _e2 | d4 B4 | _e6 e2 | d8 || d4 _e4 | d4 d4- | d2 c2 =B2 c2 | %32
w: e, qui- e- tam|no- ctem tri- bu-|e, qui- e- tam|no- cte|tri- bu-|e.|De- fen-|sor no-|* ster a- spi-|
 c2 c2 d2 d2 | cA d2 B2 c2- | cB B4 A2 | B4 z2 f2 | f2 f2 d2 B2 | G2 d3 c/B/ c2 | d4 z4 | z8 | %40
w: ce, de- fen- sor|no- * * ster a-|* * * spi-|ce, in-|si- di- an- tes|re- pri- * * *|me,||
 z4 z2 d2 | _e2 c2 dc BA | BG c2 F2 f2- | f2 d2 d2 G2 | B2 c2 B2 A2 | d2 c2 c2 d2- | d2 d4 d2 | %47
w: quos|san- gui- ne _ _ _|_ _ _ mer- ca-|* tus es, quos|san- gui- ne mer-|ca- tus es, mer-|* ca- tus|
 =B8 |] %48
w: es.|
V:3
 z8 | z8 | z8 | z8 | G4 G4 | B4 G4 | F4 G4 | A4 B4 | A4 G4 | z8 | z8 | z2 F2 G2 A2 | B4 G4 | %13
w: ||||Pre- ca-|* mur|_ san-|cte do-|mi- ne,|||sit no- bis|in te|
 A3 G FD G2- | G2 FE F2 F2 | G4 D4 | d4 c2 B2- | BA/G/ A2 B2 d2- | d2 cB c2 d2 | G4 z4 | A4 B4 | %21
w: re- * * * *|* * * * qui-|es, qui-|e- tam no-|* * * * ctem tr-|* * * * bu-|e,|qui- e-|
 G4 F4 | G4 A4 | B4 A4 | G2 B3 A/G/ A2 | B2 d2 c3 B | A4 G2 G2- | GC c4 c2 | =B8 || G4 G4 | B4 G4 | %31
w: tam no-|ctem tri-|bu- e,|qui- e- * * *|tam no- * *|* ctem tri-|* * * bu-|e.|De- fen-|* sor|
 F4 G4 | A4 B4 | A4 G4 | z8 | z2 B2 B2 B2 | A2 F2 G4 | B4 A4 | z2 B2 A2 G2 | A4 D2 G2- | G2 F2 G4 | %41
w: _ no-|ster a-|spi- ce,||in- si- di-|an- tes re-|pri- me,|gu- ber- na|tu- os fa-|* mu- los,|
 z8 | z8 | A4 B4 | G4 F4 | G4 A4 | B4 A4 | G8 |] %48
w: ||quo san-|gui- *|ne mer-|ca- tus|es.|
V:4
 z8 | z8 | z8 | D,4 D,4 | C,4 z2 G,2- | G,2 D,2 _E,3 E, | D,2 D,2 B,,2 C,2 | %7
w: |||Pre- ca-|mur san-|* cte do- mi-|ne, pre- ca- mur|
"^b" F,E, D,C, B,,2 B,,2 | C,2 D,2 G,,2 G,2 | G,2 G,2 F,2 D,2 | F,4 _E,4 | D,4 z4 | %12
w: san- * * * * cte|do- mi- ne, de-|fen- de nos in|hac no-|cte,|
 z2 B,,2 C,2 C,2 | C,2 A,,2 B,,3 A,,/G,,/ | A,,6 A,,2 | G,,2 G,2 G,2 ^F,2 | G,2 G,,2 _E,4 | %17
w: fit no- bis|in te re- * *|* qui-|es, qui- e- tam|noc- tem tri-|
 D,3 D, G,,4- | G,,4 z4 | z8 | z8 | z8 | z8 | z4 D,4 | _E,4 C,4 | B,,4 C,4 | D,4 _E,3 D, | %27
w: * bu- e,|_|||||qui-|e- tam|_ no-|ctem tri- *|
 C,6 C,2 | G,,8 || z2 G,2 _E,2 C,2 | G,2 G,,2 G,,A,, B,,C, | D,E, F,4 E,2 | F,4 z2 B,,2 | %33
w: * bu-|e.|De- fen- sor|no- ster a- * * *|* * * spi-|ce, de-|
 F,2 D,2 _E,4 | D,4 C,3 C, | B,,8 | z8 | z8 | B,,4 C,2 C,2 | C,2 A,,2 B,,4 | A,,4 G,,4 | z8 | %42
w: fen- sor no-|ster a- spi-|ce,|||gu- ber- na|tu- os fa-|mu- los,||
"^#" z8 | z2 D,4 _E,2- | E,2 C,2 D,3 C, |"^b" B,,2 C,2 F,E, D,C, | B,,3 G,, D,2 D,2 | G,,8 |] %48
w: |quos san-|* gui- ne _|_ mer- ca- * * *|* * * tus|es.|

